X: 34997
T: Rogha Mhaire Ni Bhraonain
R: jig
M: 6/8
K: Gmajor
|:G2E D3|E2F G2B|A2G E2F|G2B d2c|
B2D D3|E2F G2B|A2G E2F|G3 G3:|
|:A|B3 B2A|B2c dcB|A3 A2G|A2B c2A|
B3 B2A|B2c d2B|A2G E2F|G3 G3:|

